build/svg/cmd/sc_numberformatthousands.svg

<?xml version="1.0" encoding="UTF-8" standalone="no"?>
<svg
   xmlns:dc="http://purl.org/dc/elements/1.1/"
   xmlns:cc="http://creativecommons.org/ns#"
   xmlns:rdf="http://www.w3.org/1999/02/22-rdf-syntax-ns#"
   xmlns:svg="http://www.w3.org/2000/svg"
   xmlns="http://www.w3.org/2000/svg"
   xmlns:sodipodi="http://sodipodi.sourceforge.net/DTD/sodipodi-0.dtd"
   xmlns:inkscape="http://www.inkscape.org/namespaces/inkscape"
   viewBox="0 0 16 16"
   version="1.1"
   id="svg4"
   sodipodi:docname="sc_numberformatthousands.svg"
   inkscape:version="0.92.5 (2060ec1f9f, 2020-04-08)"
   inkscape:export-filename="/home/jupiter007/Libreoffice yaru theme fullcolor/build/cmd/de/sc_numberformatthousands.png"
   inkscape:export-xdpi="96"
   inkscape:export-ydpi="96">
  <metadata
     id="metadata10">
    <rdf:RDF>
      <cc:Work
         rdf:about="">
        <dc:format>image/svg+xml</dc:format>
        <dc:type
           rdf:resource="http://purl.org/dc/dcmitype/StillImage" />
      </cc:Work>
    </rdf:RDF>
  </metadata>
  <defs
     id="defs8" />
  <sodipodi:namedview
     pagecolor="#ffffff"
     bordercolor="#666666"
     borderopacity="1"
     objecttolerance="10"
     gridtolerance="10"
     guidetolerance="10"
     inkscape:pageopacity="0"
     inkscape:pageshadow="2"
     inkscape:window-width="1920"
     inkscape:window-height="1011"
     id="namedview6"
     showgrid="true"
     inkscape:zoom="29.5"
     inkscape:cx="9.6404456"
     inkscape:cy="7.028481"
     inkscape:window-x="1920"
     inkscape:window-y="32"
     inkscape:window-maximized="1"
     inkscape:current-layer="svg4">
    <inkscape:grid
       type="xygrid"
       id="grid849" />
  </sodipodi:namedview>
  <path
     sodipodi:nodetypes="cccscsccccccccscscccccc"
     inkscape:connector-curvature="0"
     id="path4237-1-3"
     d="M 4.9941157,0.99971 C 3.7359159,1.0142099 2.815225,0.96911 2.062475,1.384476 1.686105,1.5921349 1.389244,1.943862 1.224584,2.3825219 1.059914,2.821192 0.99997495,3.34211 0.99997495,3.9997109 v 1.488281 6.5122981 c 0,0.65761 0.0599,1.178577 0.22460905,1.617188 0.16468,0.438611 0.461531,0.788524 0.837891,0.996093 0.7527199,0.41513 1.6735409,0.371649 2.9316407,0.386719 h 0.002 6.0058593 0.0039 c 1.25819,-0.0145 2.178891,0.0306 2.931641,-0.384766 0.37637,-0.20766 0.673221,-0.559386 0.837891,-0.998046 0.164539,-0.438671 0.224618,-0.959578 0.224618,-1.617188 V 5.466508 3.999711 c 0,-0.657601 -0.0599,-1.178579 -0.224609,-1.617189 C 14.610736,1.943922 14.313885,1.593988 13.937525,1.386429 13.184755,0.971299 12.263924,1.01479 11.005834,0.99971 h -0.002 -6.0058595 z"
     style="font-style:normal;font-variant:normal;font-weight:normal;font-stretch:normal;font-size:15px;line-height:125%;font-family:Ubuntu;-inkscape-font-specification:Ubuntu;text-align:center;letter-spacing:0px;word-spacing:0px;writing-mode:lr-tb;text-anchor:middle;display:inline;opacity:0.6;fill:#000000;fill-opacity:1;stroke:none;stroke-width:0.99980211" />
  <path
     inkscape:connector-curvature="0"
     id="path1993-6"
     d="M 7.9833436,2.026894 C 6.4267625,2.037694 4.8733538,2.015144 3.323403,2.065674 2.862174,2.108344 2.3072149,2.272094 2.1680631,2.775641 1.949069,3.410988 2.059649,4.109429 2.022267,4.7575669 c -0.0078,2.2970843 -0.02297,5.5964241 0.02152,7.8857761 0.0391,0.461929 0.202551,1.012666 0.6987559,1.163666 0.632456,0.225082 1.2841436,0.12274 1.9359737,0.154298 1.424235,0.0068 2.850563,0.01102 4.2764202,0.01131 1.7045312,3.5e-4 1.4083882,-0.005 3.1071902,-0.01851 0.511911,-0.01201 1.183699,0.01993 1.584745,-0.405191 0.421097,-0.539783 0.287073,-1.268021 0.322745,-1.903786 0.01187,-2.4443226 0.02769,-5.911092 -0.0219,-8.356793 C 13.898437,2.886297 13.777725,2.425385 13.372578,2.243862 12.704409,1.949765 11.946373,2.075843 11.246657,2.038289 9.4922501,2.026489 9.7377831,2.025809 7.9833438,2.026899 Z"
     style="opacity:1;vector-effect:none;fill:#a6d74f;fill-opacity:1;stroke:none;stroke-width:1;stroke-linecap:round;stroke-linejoin:bevel;stroke-miterlimit:4;stroke-dasharray:none;stroke-dashoffset:0;stroke-opacity:1"
     sodipodi:nodetypes="cccccccscccccccc" />
  <path
     inkscape:connector-curvature="0"
     style="opacity:1;fill:#4d4d4d;fill-opacity:1;stroke:none;stroke-width:8.77999973;stroke-linejoin:round;stroke-miterlimit:4;stroke-dasharray:none;stroke-opacity:1"
     d="m 11,4.9999999 c -1.1079999,0 -1.9999999,0.892 -1.9999999,2.0000003 V 9.0000003 C 9.0000001,10.108 9.8920001,11 11,11 c 1.108,0 2,-0.892 2,-1.9999997 V 7.0000002 C 13,5.892 12.108,4.9999999 11,4.9999999 Z m 0,1 c 0.554,0 1,0.446 1,1.0000003 V 9.0000003 C 12,9.5540003 11.554,10 11,10 10.446,10 10,9.5540003 10,9.0000003 V 7.0000002 c 0,-0.5540003 0.446,-1.0000003 1,-1.0000003 z"
     id="rect4527" />
  <path
     style="opacity:1;fill:#4d4d4d;fill-opacity:1;stroke:none;stroke-width:8.77999973;stroke-linejoin:round;stroke-miterlimit:4;stroke-dasharray:none;stroke-opacity:1"
     d="M 5.5,5.0000001 H 5 L 4.6464845,5.3535157 3.2324219,6.7675782 c -0.1958686,0.1958686 -0.1958686,0.5111627 0,0.7070313 0.1958686,0.1958686 0.5111626,0.1958686 0.7070312,0 L 5,6.4140626 V 10.5 C 5,10.777 5.2229999,11 5.5,11 5.7770001,11 6,10.777 6,10.5 V 5.5000001 c 0,-0.277 -0.2229999,-0.5 -0.5,-0.5 z"
     id="rect832"
     inkscape:connector-curvature="0"
     sodipodi:nodetypes="sccssscsssss" />
  <circle
     style="opacity:1;fill:#4d4d4d;fill-opacity:1;stroke:none;stroke-width:1;stroke-linecap:round;stroke-linejoin:round;stroke-miterlimit:4;stroke-dasharray:none;stroke-opacity:1"
     id="path842"
     cx="7.999999"
     cy="11"
     r="1" />
</svg>

<svg xmlns="http://www.w3.org/2000/svg" viewBox="0 0 16 16"><path d="M4.994 1c-1.258.014-2.179-.03-2.932.384a1.88 1.88 0 00-.837.999C1.06 2.82 1 3.343 1 4v8c0 .658.06 1.179.225 1.617.164.44.461.789.837.997.753.415 1.674.371 2.932.386h6.012c1.258-.014 2.179.03 2.932-.384a1.88 1.88 0 00.837-.999c.165-.438.225-.96.225-1.617V4c0-.658-.06-1.179-.225-1.617a1.875 1.875 0 00-.837-.997c-.753-.415-1.674-.371-2.932-.386H4.998z" style="line-height:125%;-inkscape-font-specification:Ubuntu;text-align:center" font-weight="400" font-size="15" font-family="Ubuntu" letter-spacing="0" word-spacing="0" text-anchor="middle" opacity=".6"/><path d="M7.983 2.027c-1.556.01-3.11-.012-4.66.039-.46.042-1.016.206-1.155.71-.219.635-.108 1.333-.146 1.982-.008 2.297-.023 5.596.022 7.885.039.462.202 1.013.699 1.164.632.225 1.284.123 1.936.154 1.424.007 2.85.011 4.276.012 1.704 0 1.408-.005 3.107-.019.512-.012 1.184.02 1.585-.405.421-.54.287-1.268.323-1.904.011-2.444.027-5.911-.022-8.357-.05-.402-.17-.863-.575-1.044-.669-.294-1.427-.168-2.126-.206-1.755-.012-1.51-.012-3.264-.011z" fill="#a6d74f"/><path d="M11 5c-1.108 0-2 .892-2 2v2c0 1.108.892 2 2 2s2-.892 2-2V7c0-1.108-.892-2-2-2zm0 1c.554 0 1 .446 1 1v2c0 .554-.446 1-1 1s-1-.446-1-1V7c0-.554.446-1 1-1zM5.5 5H5l-.354.354-1.414 1.414a.499.499 0 10.707.707L5 6.415V10.5a.499.499 0 101 0v-5c0-.277-.223-.5-.5-.5z" fill="#4d4d4d"/><circle cx="8" cy="11" r="1" fill="#4d4d4d"/></svg>
